X: 301
T: Solomon Levi
T: Singing Quadrille
S: Viola Ruth "Pioneer Western Folk Tunes" 1948 p.30 #1
R: jig
Z: 2019 John Chambers <jc:trillian.mit.edu>
N: The 16th notes in bar 2 were 8th notes; fixed to match bar 10.
N: The instructions are a bit unclear.
M: 6/8
L: 1/8
K: Bb
V: 1 name="83"
(DE) !segno!||\
F2F F2F | F2F F2(=E/F/) | G2G G2G | G3 (c2B) |\
A2A A2A | A2A A2G | F2G F2E | D3- D2 (D/E/) |
"^Here for last Prominade"\
F2F F2F | F2F F2(E/F/) | G2G G2G | G3- G2G |\
A2A A2A | A2A A2G | FEF G2A | B3-"^to here"B3 ||
d3 AAA | B3 G3 | ded cBA | G3- G2(A/B/) |\
c3 GGG | A3 F3 | cdc BAG | FGF EDC !segno!||"^Repeat"x
"_Last time only"F2- F2 |]

